X:1
T:The Road To Glountane (Cormac Begley Version)
R:barndance
M:4/4
L:1/8
K:Gmaj
GE| D2DE G2GA|B2dB AGGd|e2 dB GABc|dBAG E2GE|
D2DE G2GA|B2dB {B}AGGd|e2 dB GABc| dBAB G2GE|
D2DE G2Gd|B2dB AGGd|eBdB GABc|dBAG ~E2GE|
D2DE G2GA|B2dB {B}AGGd|[Ce]2 dB GABc| dBAB G2ge||
d2de gage|dBAG E2GA|B ~A3 B ~A2 G|BGAG EGGe|
d2de gage|dBAG E2GA|B ~A3 BdeB| dBAB G2ge|
d2de g3e |dBAG [C,E]2GA |B ~A3 B ~A2 G|BGAG EGGe|
[GBd]3e g2[GCg]e|[BDd]BAG [CE]2GA|B ~A3 BdeB| dBAB G2GE||

